33_points.cube
TITLE "Generated by Resolve"
LUT_3D_SIZE 9
0 0 0
0.026688 0.026688 0.026688
0.053666 0.0536507 0.0536507
0.0809491 0.0808728 0.0808728
0.108431 0.108186 0.108186
0.136156 0.135637 0.135637
0.164019 0.163043 0.163027
0.192752 0.191119 0.191089
0.22266 0.220081 0.220035
0.090898 0.0909438 0.090898
0.118257 0.118257 0.118181
0.145296 0.145174 0.145052
0.172915 0.172534 0.172335
0.200931 0.200122 0.199832
0.229511 0.228046 0.227649
0.259831 0.25742 0.256886
0.292866 0.289174 0.288502
0.330602 0.325231 0.324376
0.182239 0.182681 0.182254
0.209751 0.210071 0.209445
0.237263 0.237278 0.236439
0.265705 0.265171 0.264073
0.295583 0.294224 0.292821
0.328099 0.325582 0.323812
0.366094 0.36199 0.359823
0.412467 0.406317 0.403677
0.471473 0.46273 0.459556
0.274464 0.276249 0.274479
0.30251 0.304036 0.301793
0.331334 0.332296 0.329503
0.362753 0.362783 0.359365
0.398917 0.39762 0.393484
0.443198 0.44007 0.435142
0.500816 0.495338 0.489525
0.576226 0.567819 0.561044
0.672267 0.660258 0.65243
0.375921 0.380804 0.375967
0.406439 0.410834 0.405035
0.440345 0.443824 0.436957
0.480766 0.482841 0.474784
0.532738 0.532845 0.523491
0.60177 0.599298 0.58854
0.693294 0.687587 0.675349
0.806882 0.797314 0.783505
0.933425 0.91928 0.903868
0.519921 0.530556 0.520027
0.558709 0.568536 0.556374
0.60444 0.612879 0.598978
0.662501 0.668894 0.653117
0.738781 0.742443 0.724727
0.837613 0.837842 0.818128
0.955657 0.951782 0.930022
1 1 1
1 1 1
0.761379 0.781079 0.761578
0.81178 0.830121 0.808316
0.870329 0.886564 0.862379
0.94168 0.955032 0.928435
1 1 1
1 1 1
1 1 1
1 1 1
1 1 1
1 1 1
1 1 1
1 1 1
1 1 1
1 1 1
1 1 1
1 1 1
1 1 1
1 1 1
1 1 1
1 1 1
1 1 1
1 1 1
1 1 1
1 1 1
1 1 1
1 1 1
1 1 1
0.00866712 0.00863661 0.0120699
0.0359503 0.035935 0.0359503
0.0628977 0.0628672 0.0628824
0.0902266 0.0901198 0.0901656
0.117723 0.117433 0.11751
0.145296 0.144686 0.144808
0.173388 0.172274 0.172457
0.202274 0.200427 0.200687
0.23238 0.229496 0.229862
0.100175 0.100221 0.100221
0.127871 0.127871 0.127871
0.154757 0.15462 0.15462
0.182208 0.181781 0.181765
0.210193 0.209293 0.209277
0.238727 0.237095 0.237079
0.269093 0.266453 0.266407
0.302296 0.298299 0.298222
0.340154 0.334371 0.334279
0.191485 0.191974 0.19173
0.218982 0.219333 0.218982
0.246632 0.246632 0.246174
0.274556 0.273976 0.273381
0.304051 0.302586 0.301808
0.336034 0.333318 0.332341
0.373373 0.368978 0.367788
0.419165 0.412604 0.411154
0.477333 0.468055 0.466316
0.283497 0.285435 0.284153
0.310796 0.312428 0.310811
0.338933 0.33994 0.337942
0.368826 0.368856 0.366415
0.402594 0.401205 0.39826
0.444434 0.441108 0.437613
0.499001 0.493217 0.489097
0.571649 0.562783 0.557992
0.66601 0.653422 0.647898
0.3841 0.389273 0.385428
0.412131 0.41677 0.412177
0.442084 0.445747 0.440314
0.476936 0.479088 0.472724
0.52163 0.521721 0.514351
0.583658 0.581033 0.572595
0.668711 0.662745 0.653147
0.779309 0.769329 0.758541
0.909819 0.89514 0.883101
0.525216 0.53637 0.52755
0.556649 0.566918 0.556756
0.592035 0.600809 0.589212
0.637156 0.643778 0.630655
0.699702 0.703456 0.688762
0.788251 0.788434 0.772122
0.903655 0.899626 0.881651
1 1 1
1 1 1
0.760861 0.781277 0.764462
0.798672 0.817624 0.798856
0.841062 0.857786 0.837018
0.895689 0.909392 0.886625
0.969757 0.979675 0.95491
1 1 1
1 1 1
1 1 1
1 1 1
1 1 1
1 1 1
1 1 1
1 1 1
1 1 1
1 1 1
1 1 1
1 1 1
1 1 1
1 1 1
1 1 1
1 1 1
1 1 1
1 1 1
1 1 1
1 1 1
1 1 1
1 1 1
0.0179294 0.0179294 0.0182803
0.0451209 0.0451057 0.0451209
0.0721599 0.0721294 0.0721599
0.0995193 0.099382 0.0994736
0.127047 0.126696 0.126864
0.154574 0.153857 0.154147
0.182818 0.181552 0.181979
0.211856 0.209781 0.210376
0.242191 0.239017 0.239811
0.109316 0.109377 0.109438
0.136675 0.136675 0.136782
0.16408 0.163897 0.164065
0.191531 0.191043 0.191287
0.219501 0.218479 0.218814
0.248081 0.246281 0.246738
0.278508 0.275624 0.276188
0.311925 0.307576 0.308293
0.350118 0.343877 0.344762
0.200763 0.201312 0.201312
0.228199 0.22858 0.22858
0.256672 0.256672 0.256672
0.283894 0.283253 0.283253
0.312596 0.311009 0.310979
0.344289 0.341375 0.341314
0.381064 0.376364 0.376287
0.426246 0.419287 0.419165
0.484184 0.474372 0.47422
0.292821 0.294911 0.294224
0.319799 0.321538 0.320668
0.347478 0.348547 0.347494
0.375998 0.376013 0.374701
0.407248 0.405753 0.404196
0.446464 0.442939 0.441062
0.497978 0.491844 0.489647
0.567285 0.557977 0.555398
0.659953 0.646754 0.643778
0.393591 0.399084 0.396384
0.419669 0.424567 0.421347
0.445823 0.449668 0.445869
0.474983 0.477241 0.472801
0.512367 0.512428 0.507301
0.566217 0.563439 0.557565
0.643595 0.637339 0.630671
0.748592 0.738216 0.730724
0.880796 0.865553 0.857206
0.534432 0.54609 0.539193
0.559289 0.569986 0.562066
0.584085 0.59321 0.584176
0.614542 0.621378 0.6112
0.661036 0.664881 0.653513
0.734508 0.734661 0.722042
0.841123 0.836896 0.823041
0.976715 0.967498 0.952392
1 1 1
0.768154 0.789334 0.775448
0.792584 0.812177 0.796719
0.816464 0.833692 0.816648
0.848035 0.862089 0.843442
0.900603 0.910735 0.890501
0.984344 0.989837 0.968032
1 1 1
1 1 1
1 1 1
1 1 1
1 1 1
1 1 1
1 1 1
1 1 1
1 1 1
1 1 1
1 1 1
1 1 1
1 1 1
1 1 1
1 1 1
1 1 1
1 1 1
1 1 1
1 1 1
1 1 1
1 1 1
0.0271916 0.0271916 0.0271916
0.0541543 0.054139 0.0541695
0.0814374 0.0813916 0.0814679
0.108843 0.108659 0.108843
0.1364 0.135973 0.136294
0.163973 0.163149 0.163653
0.19234 0.19089 0.191623
0.221561 0.219257 0.220249
0.252094 0.2486 0.249928
0.118593 0.118669 0.118822
0.145708 0.145708 0.145953
0.173205 0.173007 0.173388
0.2009 0.200336 0.200885
0.228717 0.227588 0.228336
0.257618 0.25565 0.256641
0.288212 0.285069 0.286336
0.321935 0.31725 0.318837
0.360739 0.35404 0.355978
0.210101 0.210712 0.211032
0.237324 0.237736 0.238163
0.265217 0.265217 0.265766
0.293233 0.292531 0.293217
0.321691 0.319966 0.320821
0.353246 0.350088 0.351141
0.389731 0.384695 0.385946
0.434546 0.427115 0.428611
0.492515 0.482094 0.483848
0.302754 0.305013 0.305028
0.329595 0.331456 0.331472
0.356741 0.35787 0.357885
0.385382 0.385382 0.385382
0.414145 0.412543 0.412528
0.450568 0.44683 0.446769
0.499336 0.492897 0.49279
0.565698 0.555932 0.555764
0.656336 0.642542 0.642313
0.405661 0.411475 0.410071
0.430243 0.435401 0.433722
0.453315 0.457343 0.45536
0.477668 0.480003 0.477684
0.508003 0.508034 0.505364
0.552895 0.549966 0.546883
0.621927 0.615396 0.611902
0.720684 0.70988 0.705943
0.851164 0.835355 0.830961
0.550408 0.562615 0.557855
0.569619 0.580774 0.575311
0.584833 0.594308 0.588098
0.600885 0.60795 0.600961
0.629129 0.633066 0.625269
0.683787 0.683879 0.675242
0.775937 0.771542 0.762066
0.907576 0.898054 0.887724
1 1 1
0.786099 0.808011 0.797345
0.79881 0.819013 0.807157
0.804486 0.822187 0.80914
0.810712 0.825101 0.810864
0.833265 0.843595 0.828168
0.890318 0.895872 0.879255
0.99295 0.993164 0.975387
1 1 1
1 1 1
1 1 1
1 1 1
1 1 1
1 1 1
1 1 1
1 1 1
1 1 1
1 1 1
1 1 1
1 1 1
1 1 1
1 1 1
1 1 1
1 1 1
1 1 1
1 1 1
1 1 1
1 1 1
0.0364538 0.0364538 0.0364538
0.0634318 0.0634165 0.0634775
0.0907454 0.0906691 0.0908217
0.118181 0.117952 0.118257
0.145541 0.145037 0.145541
0.173465 0.172519 0.173281
0.201968 0.200351 0.201434
0.23125 0.228687 0.230167
0.262425 0.258595 0.260548
0.127687 0.127764 0.128038
0.155032 0.155032 0.155474
0.182574 0.182361 0.183017
0.210361 0.209735 0.210651
0.238315 0.237064 0.2383
0.267445 0.265278 0.266896
0.298375 0.294972 0.297032
0.332341 0.327306 0.329854
0.372305 0.365148 0.368277
0.219409 0.220096 0.220783
0.246952 0.24741 0.248325
0.274662 0.274662 0.275837
0.30277 0.302007 0.303502
0.33167 0.329809 0.331655
0.363333 0.35996 0.362203
0.399954 0.394598 0.397284
0.444785 0.436912 0.440101
0.503395 0.492393 0.496132
0.313573 0.315984 0.316808
0.340658 0.342641 0.343648
0.367315 0.368505 0.369726
0.3944 0.3944 0.39585
0.423606 0.421897 0.42359
0.458412 0.454444 0.456413
0.505135 0.498314 0.500603
0.569253 0.558968 0.561563
0.65803 0.643549 0.646479
0.421088 0.427237 0.427283
0.445106 0.450553 0.450599
0.466407 0.470619 0.470665
0.486992 0.489418 0.489448
0.512963 0.512963 0.512963
0.54902 0.545937 0.545876
0.60914 0.602335 0.602213
0.700862 0.689662 0.689479
0.827451 0.811124 0.810849
0.574487 0.587259 0.584833
0.590295 0.601923 0.599145
0.598566 0.608377 0.605203
0.602701 0.609979 0.606409
0.613733 0.617761 0.613779
0.647349 0.647395 0.642969
0.720455 0.715892 0.711009
0.841505 0.831693 0.826352
1 0.988052 0.982269
0.816876 0.839567 0.832319
0.821653 0.842496 0.83447
0.812543 0.830732 0.821912
0.79556 0.8103 0.800656
0.785168 0.795697 0.785275
0.805493 0.811109 0.799893
0.880507 0.880629 0.86865
1 1 0.998306
1 1 1
1 1 1
1 1 1
1 1 1
1 1 1
1 1 1
1 1 1
1 1 1
1 1 1
1 1 1
1 1 1
1 1 1
1 1 1
1 1 1
1 1 1
1 1 1
1 1 1
1 1 1
1 1 1
0.0455787 0.0455787 0.0456092
0.072755 0.0727398 0.0728313
0.100099 0.0999924 0.100237
0.12752 0.127245 0.127687
0.155016 0.154437 0.155154
0.183078 0.181994 0.183062
0.211765 0.209949 0.21146
0.241337 0.238499 0.240543
0.273167 0.268971 0.271641
0.137041 0.137148 0.137591
0.164462 0.164462 0.165133
0.192081 0.191836 0.192813
0.219821 0.219135 0.220493
0.248203 0.24683 0.248631
0.277714 0.275364 0.277699
0.309239 0.305547 0.308507
0.344045 0.338628 0.342275
0.385275 0.3776 0.382055
0.229267 0.230015 0.231159
0.257023 0.257511 0.259007
0.285008 0.284993 0.286915
0.313222 0.312398 0.314809
0.34287 0.340871 0.343832
0.375143 0.371542 0.375128
0.412284 0.406592 0.41088
0.458259 0.449928 0.454994
0.518013 0.506401 0.512322
0.325795 0.328389 0.330144
0.353475 0.355596 0.357733
0.380667 0.381933 0.384512
0.407691 0.40766 0.410712
0.436896 0.43508 0.438666
0.471702 0.467506 0.471672
0.517174 0.510018 0.514809
0.580392 0.569619 0.575082
0.667796 0.652674 0.658839
0.440696 0.447181 0.448859
0.465446 0.471168 0.473121
0.486748 0.491157 0.4934
0.505516 0.508019 0.510582
0.527169 0.527153 0.530022
0.558862 0.555611 0.558846
0.611429 0.604303 0.607874
0.69601 0.684337 0.688289
0.816953 0.8 0.804303
0.607797 0.621134 0.621256
0.623148 0.635248 0.635355
0.628016 0.638178 0.63827
0.625559 0.633082 0.633143
0.623667 0.627787 0.627832
0.639185 0.639185 0.639185
0.690623 0.685878 0.685802
0.79501 0.784894 0.784741
0.950774 0.93463 0.934371
0.860594 0.884047 0.880461
0.862821 0.884291 0.880308
0.845808 0.864469 0.86009
0.813016 0.828092 0.823285
0.774777 0.785504 0.780301
0.7561 0.761776 0.756161
0.791684 0.791745 0.785718
0.903609 0.897551 0.891112
1 1 1
1 1 1
1 1 1
1 1 1
1 1 1
1 1 1
0.984115 0.997543 0.984253
0.990997 0.998001 0.984054
1 1 1
1 1 1
1 1 1
1 1 1
1 1 1
1 1 1
1 1 1
1 1 1
1 1 1
1 1 1
1 1 1
0.0548257 0.0548257 0.0548714
0.0821241 0.0820935 0.0822614
0.109514 0.109392 0.109743
0.136934 0.136614 0.13724
0.164584 0.163912 0.164904
0.192813 0.191592 0.193042
0.22179 0.219776 0.221775
0.251804 0.248707 0.251377
0.284443 0.279881 0.28333
0.146532 0.146654 0.147295
0.174044 0.174029 0.17499
0.201785 0.201495 0.202869
0.229679 0.228901 0.230777
0.258518 0.257008 0.259464
0.288624 0.286061 0.289219
0.320897 0.316915 0.320867
0.357092 0.351278 0.356146
0.400061 0.391882 0.397787
0.239551 0.24036 0.242023
0.267689 0.268223 0.27039
0.296162 0.296147 0.298894
0.325139 0.324239 0.327657
0.355734 0.353582 0.357778
0.389242 0.385382 0.390433
0.427802 0.421759 0.427771
0.47567 0.466865 0.47393
0.537469 0.525231 0.533471
0.339712 0.342489 0.345266
0.368566 0.370809 0.374197
0.396857 0.398184 0.402243
0.425406 0.425361 0.430167
0.455955 0.454017 0.459632
0.491844 0.487419 0.493935
0.537942 0.530419 0.537896
0.601297 0.590036 0.59852
0.688197 0.672465 0.682017
0.46511 0.471962 0.475395
0.492042 0.498054 0.502037
0.514824 0.519432 0.524025
0.535195 0.537804 0.543038
0.556405 0.556359 0.56228
0.585657 0.582254 0.588891
0.634119 0.626719 0.634073
0.712261 0.70016 0.708263
0.826459 0.808957 0.817807
0.650507 0.664424 0.667231
0.668284 0.680873 0.684031
0.674327 0.684855 0.688365
0.67097 0.678721 0.682582
0.663584 0.667811 0.672023
0.666285 0.666239 0.670802
0.700877 0.695949 0.700847
0.785885 0.775448 0.780667
0.927321 0.910719 0.916274
0.914122 0.938323 0.938537
0.919676 0.941772 0.941985
0.903441 0.922606 0.922774
0.865873 0.881285 0.881437
0.813428 0.824353 0.82446
0.766064 0.771786 0.771847
0.761822 0.761822 0.761822
0.8365 0.830259 0.830167
0.998444 0.985412 0.985199
1 1 1
1 1 1
1 1 1
1 1 1
1 1 1
0.957855 0.971405 0.964797
0.900984 0.908019 0.901061
0.938369 0.938445 0.931136
1 1 1
1 1 1
1 1 1
1 1 1
1 1 1
1 1 1
1 1 1
1 1 1
1 1 1
1 1 1
0.0641642 0.0641642 0.0642557
0.0915084 0.0914778 0.0917372
0.118959 0.118807 0.119326
0.146334 0.145953 0.146807
0.174273 0.173495 0.174807
0.202731 0.201358 0.203235
0.231815 0.229587 0.232151
0.26276 0.259342 0.26273
0.296437 0.291463 0.295811
0.1561 0.156237 0.157107
0.183764 0.183764 0.185061
0.211765 0.211444 0.21326
0.240024 0.23917 0.241611
0.269429 0.267781 0.27097
0.300404 0.297627 0.301686
0.333745 0.329473 0.334524
0.371847 0.365621 0.371817
0.417151 0.408423 0.4159
0.250309 0.251209 0.253468
0.279164 0.279728 0.282643
0.308461 0.308431 0.312108
0.338643 0.337682 0.342229
0.370779 0.368475 0.374014
0.406226 0.402121 0.408774
0.447166 0.440742 0.448631
0.497856 0.488548 0.497795
0.562631 0.549767 0.560494
0.355627 0.358602 0.362524
0.38645 0.388846 0.393591
0.41677 0.418173 0.423835
0.447898 0.447852 0.454536
0.481163 0.479118 0.486915
0.519615 0.514946 0.523964
0.568185 0.560311 0.570611
0.633326 0.621561 0.633249
0.720699 0.704311 0.717433
0.494835 0.502068 0.507393
0.525429 0.531731 0.537926
0.551934 0.556741 0.563867
0.575998 0.578698 0.586801
0.600397 0.600336 0.609476
0.631083 0.627527 0.637736
0.678401 0.67071 0.682017
0.752178 0.739666 0.752087
0.859205 0.841169 0.854704
0.701717 0.716213 0.721904
0.724254 0.737316 0.743694
0.735607 0.746502 0.753597
0.736706 0.744686 0.752499
0.731853 0.736171 0.744717
0.731579 0.731517 0.740764
0.755734 0.750652 0.760601
0.823545 0.812833 0.823484
0.945159 0.928176 0.939483
0.971771 0.99675 1
0.985245 1 1
0.978592 0.99823 1
0.947906 0.963668 0.968887
0.896696 0.90782 0.913344
0.840055 0.845853 0.851682
0.810468 0.810422 0.81651
0.846845 0.840436 0.846799
0.973342 0.959991 0.966613
1 1 1
1 1 1
1 1 1
1 1 1
1 1 1
1 1 1
0.911269 0.918334 0.918395
0.881651 0.881651 0.881651
0.985687 0.978164 0.978042
1 1 1
1 1 1
1 1 1
1 1 1
1 1 1
1 1 1
1 1 1
1 1 1
1 1 1
0.0735027 0.0735027 0.0736706
0.100908 0.100862 0.101244
0.128252 0.128069 0.128771
0.155932 0.155489 0.156634
0.18407 0.183185 0.184894
0.212848 0.211322 0.213703
0.242496 0.240024 0.243244
0.274311 0.270588 0.274784
0.309346 0.30396 0.309316
0.165713 0.165881 0.167041
0.193652 0.193637 0.195331
0.221759 0.221408 0.223743
0.250858 0.249928 0.25304
0.281117 0.279316 0.283345
0.313313 0.310307 0.315389
0.348348 0.34374 0.350027
0.388769 0.382101 0.389776
0.437095 0.427802 0.437034
0.261677 0.262654 0.265599
0.2916 0.292226 0.295979
0.322103 0.322057 0.326772
0.354223 0.353185 0.358984
0.388617 0.38616 0.393194
0.426535 0.422171 0.430564
0.471199 0.464408 0.474342
0.525734 0.515908 0.52752
0.5944 0.580865 0.594308
0.374014 0.377172 0.382361
0.407691 0.410224 0.416495
0.44126 0.442741 0.450187
0.476112 0.476051 0.48481
0.513542 0.51136 0.521553
0.556069 0.551156 0.56289
0.609003 0.600748 0.61413
0.677333 0.665049 0.680171
0.765789 0.74876 0.765682
0.530419 0.538018 0.545449
0.56611 0.572717 0.581308
0.598291 0.603311 0.613153
0.628214 0.631022 0.642206
0.658442 0.658351 0.670924
0.693721 0.690013 0.704036
0.743313 0.735332 0.75082
0.81529 0.802365 0.819348
0.915404 0.896834 0.915282
0.759945 0.775036 0.783825
0.789364 0.802899 0.812741
0.809155 0.820417 0.831342
0.819013 0.827222 0.839246
0.822263 0.826688 0.839796
0.82739 0.827268 0.841459
0.849821 0.844572 0.8598
0.906126 0.895125 0.911391
1 0.990585 1
1 1 1
1 1 1
1 1 1
1 1 1
1 1 1
0.963485 0.96936 0.98114
0.92903 0.928939 0.941314
0.940734 0.934157 0.947112
1 1 1
1 1 1
1 1 1
1 1 1
1 1 1
1 1 1
1 1 1
1 1 1
0.958144 0.958083 0.965515
0.996201 0.98851 0.996155
1 1 1
1 1 1
1 1 1
1 1 1
1 1 1
1 1 1
1 1 1
1 1 1
1 1 1
