33_points.cube
TITLE "Generated by Resolve"
LUT_3D_SIZE 5
0 0 0
0.053666 0.0536507 0.0536507
0.108431 0.108186 0.108186
0.164019 0.163043 0.163027
0.22266 0.220081 0.220035
0.182239 0.182681 0.182254
0.237263 0.237278 0.236439
0.295583 0.294224 0.292821
0.366094 0.36199 0.359823
0.471473 0.46273 0.459556
0.375921 0.380804 0.375967
0.440345 0.443824 0.436957
0.532738 0.532845 0.523491
0.693294 0.687587 0.675349
0.933425 0.91928 0.903868
0.761379 0.781079 0.761578
0.870329 0.886564 0.862379
1 1 1
1 1 1
1 1 1
1 1 1
1 1 1
1 1 1
1 1 1
1 1 1
0.0179294 0.0179294 0.0182803
0.0721599 0.0721294 0.0721599
0.127047 0.126696 0.126864
0.182818 0.181552 0.181979
0.242191 0.239017 0.239811
0.200763 0.201312 0.201312
0.256672 0.256672 0.256672
0.312596 0.311009 0.310979
0.381064 0.376364 0.376287
0.484184 0.474372 0.47422
0.393591 0.399084 0.396384
0.445823 0.449668 0.445869
0.512367 0.512428 0.507301
0.643595 0.637339 0.630671
0.880796 0.865553 0.857206
0.768154 0.789334 0.775448
0.816464 0.833692 0.816648
0.900603 0.910735 0.890501
1 1 1
1 1 1
1 1 1
1 1 1
1 1 1
1 1 1
1 1 1
0.0364538 0.0364538 0.0364538
0.0907454 0.0906691 0.0908217
0.145541 0.145037 0.145541
0.201968 0.200351 0.201434
0.262425 0.258595 0.260548
0.219409 0.220096 0.220783
0.274662 0.274662 0.275837
0.33167 0.329809 0.331655
0.399954 0.394598 0.397284
0.503395 0.492393 0.496132
0.421088 0.427237 0.427283
0.466407 0.470619 0.470665
0.512963 0.512963 0.512963
0.60914 0.602335 0.602213
0.827451 0.811124 0.810849
0.816876 0.839567 0.832319
0.812543 0.830732 0.821912
0.785168 0.795697 0.785275
0.880507 0.880629 0.86865
1 1 1
1 1 1
1 1 1
1 1 1
1 1 1
1 1 1
0.0548257 0.0548257 0.0548714
0.109514 0.109392 0.109743
0.164584 0.163912 0.164904
0.22179 0.219776 0.221775
0.284443 0.279881 0.28333
0.239551 0.24036 0.242023
0.296162 0.296147 0.298894
0.355734 0.353582 0.357778
0.427802 0.421759 0.427771
0.537469 0.525231 0.533471
0.46511 0.471962 0.475395
0.514824 0.519432 0.524025
0.556405 0.556359 0.56228
0.634119 0.626719 0.634073
0.826459 0.808957 0.817807
0.914122 0.938323 0.938537
0.903441 0.922606 0.922774
0.813428 0.824353 0.82446
0.761822 0.761822 0.761822
0.998444 0.985412 0.985199
1 1 1
1 1 1
1 1 1
1 1 1
1 1 1
0.0735027 0.0735027 0.0736706
0.128252 0.128069 0.128771
0.18407 0.183185 0.184894
0.242496 0.240024 0.243244
0.309346 0.30396 0.309316
0.261677 0.262654 0.265599
0.322103 0.322057 0.326772
0.388617 0.38616 0.393194
0.471199 0.464408 0.474342
0.5944 0.580865 0.594308
0.530419 0.538018 0.545449
0.598291 0.603311 0.613153
0.658442 0.658351 0.670924
0.743313 0.735332 0.75082
0.915404 0.896834 0.915282
1 1 1
1 1 1
1 1 1
0.92903 0.928939 0.941314
1 1 1
1 1 1
1 1 1
1 1 1
1 1 1
1 1 1
