33_points.cube
TITLE "Generated by Resolve"
LUT_3D_SIZE 33
0 0 0
0.007187 0.0059968 0.00598154
0.0135653 0.0128328 0.0128328
0.0199741 0.0199741 0.0199741
0.026688 0.026688 0.026688
0.0334173 0.0334173 0.0334173
0.0401465 0.0401465 0.0401465
0.046891 0.0468757 0.0468757
0.053666 0.0536507 0.0536507
0.0606394 0.0606241 0.0606241
0.0673991 0.0673686 0.0673686
0.0741741 0.0741131 0.0741131
0.0809491 0.0808728 0.0808728
0.0877394 0.0876173 0.0876173
0.0946212 0.0944839 0.0944686
0.101595 0.101411 0.101411
0.108431 0.108186 0.108186
0.115267 0.114977 0.114961
0.122118 0.121767 0.121752
0.129 0.128573 0.128557
0.136156 0.135637 0.135637
0.143084 0.142473 0.142458
0.150027 0.14931 0.149294
0.157015 0.156176 0.156161
0.164019 0.163043 0.163027
0.171221 0.170108 0.170077
0.178424 0.177142 0.177111
0.18555 0.1841 0.184085
0.192752 0.191119 0.191089
0.200031 0.198169 0.198138
0.20737 0.205295 0.205264
0.215045 0.212726 0.21268
0.22266 0.220081 0.220035
0.0222934 0.0222934 0.0222934
0.0290532 0.0290532 0.0290532
0.0360418 0.0360418 0.0360418
0.042771 0.042771 0.042771
0.049485 0.049485 0.049485
0.056199 0.056199 0.056199
0.0629282 0.0629129 0.0629129
0.0699321 0.0699016 0.0699016
0.0766918 0.0766461 0.0766461
0.0834669 0.0834058 0.0833906
0.0902419 0.0901503 0.0901503
0.0970169 0.09691 0.0968948
0.103838 0.1037 0.103685
0.110887 0.110689 0.110674
0.117708 0.117464 0.117449
0.124529 0.124239 0.124224
0.13138 0.131029 0.130999
0.138262 0.137819 0.137789
0.145235 0.144717 0.144671
0.152331 0.15172 0.151675
0.159274 0.158556 0.158511
0.166262 0.165408 0.165362
0.173281 0.172305 0.172244
0.180346 0.179217 0.179156
0.187594 0.186297 0.186221
0.194873 0.193408 0.193332
0.202106 0.200443 0.200351
0.2094 0.207538 0.207431
0.216785 0.214694 0.214588
0.224277 0.221942 0.22182
0.232105 0.229496 0.229374
0.239933 0.237034 0.236896
0.247852 0.244648 0.244495
0.045304 0.045304 0.045304
0.0521248 0.0521401 0.0521248
0.0588846 0.0588846 0.0588846
0.0656138 0.0656138 0.0656138
0.0723278 0.0723278 0.0723125
0.0790417 0.0790265 0.0790112
0.0860304 0.0859998 0.0859846
0.0927749 0.0927291 0.0926986
0.0995346 0.0994736 0.099443
0.106325 0.106218 0.106188
0.113115 0.112978 0.112947
0.119921 0.119753 0.119707
0.126986 0.126772 0.126726
0.133822 0.133547 0.133486
0.140658 0.140322 0.140261
0.147524 0.147112 0.147036
0.154406 0.153903 0.153826
0.161379 0.160784 0.160693
0.168521 0.167819 0.167712
0.175494 0.17467 0.174563
0.182513 0.181567 0.181445
0.189578 0.188479 0.188342
0.196704 0.195438 0.195285
0.20415 0.202701 0.202548
0.211398 0.209751 0.209583
0.218708 0.216861 0.216678
0.226139 0.224063 0.22385
0.233661 0.231342 0.231128
0.241459 0.238865 0.238621
0.249409 0.246525 0.246265
0.257389 0.2542 0.253925
0.265568 0.262043 0.261753
0.273976 0.2701 0.26978
0.0681468 0.0681468 0.0681468
0.0749371 0.0749371 0.0749218
0.0817121 0.0817121 0.0816968
0.0884565 0.0884565 0.088426
0.0951705 0.0951705 0.09514
0.102144 0.102129 0.102083
0.108888 0.108843 0.108797
0.115633 0.115572 0.115511
0.122408 0.122316 0.122255
0.129213 0.129076 0.129
0.136263 0.13608 0.136004
0.143099 0.14287 0.142779
0.149935 0.14963 0.149523
0.156786 0.15642 0.156298
0.163668 0.16321 0.163073
0.170565 0.170016 0.169863
0.177752 0.177096 0.176944
0.184726 0.183948 0.183764
0.19173 0.190829 0.190631
0.198779 0.197742 0.197528
0.205905 0.204685 0.204456
0.213138 0.211749 0.21149
0.2206 0.219028 0.218753
0.227955 0.226154 0.225864
0.235386 0.233371 0.233051
0.242939 0.240681 0.240345
0.250629 0.248112 0.247745
0.258595 0.255787 0.25539
0.266804 0.263676 0.263249
0.275029 0.27158 0.271122
0.283513 0.279698 0.27921
0.292256 0.288075 0.287556
0.301335 0.296727 0.296178
0.090898 0.0909438 0.090898
0.0977035 0.097734 0.0976883
0.104494 0.104509 0.104463
0.111437 0.111452 0.111376
0.118257 0.118257 0.118181
0.125002 0.124971 0.124895
0.131746 0.131701 0.131594
0.138506 0.13843 0.138308
0.145296 0.145174 0.145052
0.152346 0.152178 0.152026
0.159197 0.158968 0.158816
0.166049 0.165743 0.165576
0.172915 0.172534 0.172335
0.179812 0.179339 0.179126
0.186725 0.18616 0.185916
0.193942 0.193256 0.192996
0.200931 0.200122 0.199832
0.207965 0.207019 0.206699
0.215061 0.213947 0.213611
0.222232 0.220951 0.220584
0.229511 0.228046 0.227649
0.237095 0.235416 0.234989
0.244541 0.242634 0.242176
0.25211 0.249973 0.249485
0.259831 0.25742 0.256886
0.267704 0.265003 0.264454
0.276051 0.273045 0.27245
0.284337 0.280995 0.280354
0.292866 0.289174 0.288502
0.301686 0.297612 0.296895
0.310826 0.306355 0.305577
0.320455 0.315541 0.314733
0.330602 0.325231 0.324376
0.113649 0.113741 0.113649
0.120455 0.120531 0.120439
0.127398 0.127474 0.127367
0.134295 0.13434 0.134218
0.14107 0.1411 0.140948
0.147829 0.147829 0.147662
0.154604 0.154559 0.154376
0.161379 0.161303 0.161105
0.16846 0.168322 0.168093
0.175296 0.175097 0.174853
0.182147 0.181888 0.181613
0.189029 0.188678 0.188373
0.195926 0.195483 0.195148
0.203082 0.202533 0.202167
0.210101 0.20943 0.209033
0.217136 0.216312 0.215885
0.224216 0.223239 0.222782
0.231357 0.230228 0.229725
0.23859 0.237263 0.236728
0.246174 0.244648 0.244083
0.25362 0.251865 0.251255
0.261189 0.259205 0.258534
0.26891 0.266651 0.265949
0.276783 0.274266 0.273503
0.284886 0.282063 0.281254
0.293462 0.290303 0.289448
0.302022 0.298528 0.297612
0.310887 0.307012 0.30605
0.320089 0.315801 0.314794
0.329656 0.324956 0.323873
0.339757 0.3346 0.333455
0.3505 0.344839 0.343633
0.361547 0.355367 0.354101
0.136492 0.13666 0.136507
0.143465 0.143618 0.143435
0.150271 0.150408 0.150195
0.157061 0.157183 0.156954
0.163867 0.163943 0.163699
0.170657 0.170703 0.170428
0.1776 0.1776 0.177295
0.184527 0.184482 0.184131
0.191363 0.191257 0.190875
0.19823 0.198047 0.197635
0.205127 0.204837 0.204395
0.212039 0.211658 0.211185
0.219211 0.218708 0.218189
0.226261 0.225635 0.225071
0.233326 0.232547 0.231952
0.240452 0.239506 0.238865
0.247654 0.24654 0.245838
0.254948 0.253635 0.252888
0.262623 0.261097 0.260288
0.270161 0.268406 0.267552
0.277867 0.275853 0.274937
0.28574 0.283452 0.282475
0.293812 0.291218 0.290196
0.302129 0.299214 0.298131
0.310994 0.307744 0.306584
0.319875 0.316258 0.315022
0.329107 0.325078 0.323781
0.33872 0.334279 0.332906
0.348775 0.343877 0.342428
0.35967 0.354284 0.352758
0.370779 0.364889 0.363272
0.382513 0.376074 0.37438
0.394934 0.38793 0.386145
0.159457 0.159731 0.159457
0.166232 0.166506 0.166201
0.173037 0.173281 0.172946
0.179843 0.180072 0.17969
0.186664 0.186847 0.186435
0.193606 0.193744 0.193301
0.200565 0.200641 0.200168
0.207416 0.207431 0.206897
0.214298 0.214221 0.213657
0.22121 0.221042 0.220417
0.228138 0.227863 0.227207
0.235386 0.234989 0.234272
0.24242 0.241886 0.241123
0.249516 0.248829 0.248005
0.256687 0.255833 0.254948
0.263951 0.262898 0.261967
0.271504 0.270268 0.269261
0.279088 0.277607 0.276539
0.286748 0.285023 0.283879
0.294575 0.292592 0.291371
0.302632 0.300343 0.299062
0.310918 0.308324 0.306966
0.319753 0.316823 0.315373
0.328649 0.325353 0.323827
0.337881 0.334188 0.332586
0.347509 0.343404 0.341711
0.35758 0.353033 0.351247
0.368154 0.363134 0.361257
0.37966 0.374136 0.372152
0.39144 0.385382 0.383291
0.403922 0.397299 0.395102
0.417166 0.409934 0.407645
0.43125 0.423392 0.420981
0.182239 0.182681 0.182254
0.189044 0.189456 0.188983
0.19585 0.196231 0.195712
0.202716 0.203067 0.202502
0.209751 0.210071 0.209445
0.216602 0.216846 0.21619
0.223453 0.223651 0.222919
0.23035 0.230457 0.229679
0.237263 0.237278 0.236439
0.244343 0.244236 0.243351
0.251499 0.25127 0.250309
0.258564 0.258198 0.25716
0.265705 0.265171 0.264073
0.272923 0.272221 0.271046
0.280247 0.279347 0.278111
0.287877 0.286763 0.285435
0.295583 0.294224 0.292821
0.303365 0.301762 0.300267
0.31136 0.309468 0.307881
0.319585 0.317388 0.315724
0.328099 0.325582 0.323812
0.337194 0.33431 0.332448
0.346441 0.343175 0.341207
0.356039 0.352361 0.350301
0.366094 0.36199 0.359823
0.376669 0.372107 0.369818
0.387808 0.382742 0.380346
0.399969 0.394369 0.391852
0.412467 0.406317 0.403677
0.425742 0.418997 0.416236
0.439872 0.432502 0.429603
0.454932 0.446906 0.44387
0.471473 0.46273 0.459556
0.205066 0.205722 0.205066
0.211872 0.212497 0.211795
0.218723 0.219333 0.218555
0.225788 0.226337 0.225513
0.232639 0.233143 0.232242
0.239506 0.239948 0.238987
0.246418 0.246769 0.245731
0.253346 0.253605 0.252506
0.260426 0.260563 0.259388
0.267628 0.267643 0.266377
0.274723 0.274586 0.273259
0.28191 0.281605 0.280186
0.289189 0.288701 0.287205
0.29659 0.295903 0.294301
0.304402 0.303502 0.301793
0.312123 0.310964 0.309178
0.320043 0.318624 0.316716
0.328206 0.326482 0.324483
0.336645 0.3346 0.332494
0.345571 0.343191 0.340963
0.354833 0.352071 0.349722
0.36437 0.361227 0.358755
0.37438 0.370809 0.368215
0.384909 0.38088 0.378164
0.396017 0.391516 0.388647
0.408057 0.403037 0.400031
0.4206 0.41503 0.411887
0.433875 0.427726 0.42443
0.448005 0.441245 0.437812
0.463066 0.45565 0.452064
0.479118 0.471031 0.467277
0.496788 0.487953 0.484031
0.515129 0.505531 0.501442
0.227939 0.228885 0.227939
0.235019 0.235935 0.234928
0.241856 0.242741 0.241657
0.248722 0.249546 0.248386
0.255604 0.256367 0.255116
0.262531 0.263203 0.261875
0.269505 0.270085 0.268666
0.276753 0.277211 0.2757
0.283818 0.284153 0.282536
0.290959 0.291142 0.289433
0.298177 0.298207 0.296391
0.305531 0.305364 0.303441
0.313085 0.312718 0.310689
0.320928 0.320317 0.318166
0.328756 0.327901 0.325643
0.336828 0.335698 0.333303
0.345174 0.343725 0.341222
0.353826 0.352056 0.349401
0.362997 0.360861 0.358083
0.37258 0.370062 0.367147
0.382498 0.379568 0.376501
0.392935 0.389563 0.386358
0.403967 0.400122 0.396765
0.415641 0.411307 0.407782
0.428321 0.423453 0.41976
0.441627 0.436179 0.432319
0.455695 0.449653 0.445624
0.47071 0.464027 0.459831
0.486748 0.479408 0.475013
0.503883 0.495811 0.491249
0.522683 0.513863 0.509102
0.542214 0.532601 0.527642
0.563027 0.552575 0.547433
0.251194 0.252522 0.251209
0.258045 0.259327 0.257939
0.264927 0.266163 0.264668
0.271824 0.272999 0.271412
0.278767 0.27985 0.278157
0.285756 0.286748 0.284947
0.293034 0.293919 0.292012
0.300145 0.300893 0.298878
0.307332 0.307927 0.305791
0.314611 0.315038 0.312779
0.322026 0.322271 0.319875
0.329656 0.329686 0.327169
0.337621 0.337407 0.334752
0.345586 0.345113 0.342321
0.353826 0.353063 0.350118
0.362356 0.361288 0.35819
0.371237 0.369833 0.366583
0.380835 0.379065 0.375647
0.3906 0.388418 0.384848
0.4009 0.398291 0.394553
0.411795 0.408743 0.404822
0.423362 0.419806 0.415717
0.435813 0.431739 0.427466
0.449104 0.44448 0.440009
0.463066 0.457862 0.453193
0.477974 0.472145 0.467292
0.493904 0.487434 0.482368
0.510948 0.503777 0.498497
0.529534 0.521614 0.516121
0.549142 0.540459 0.534737
0.569894 0.560388 0.554452
0.591989 0.581628 0.575463
0.615427 0.604166 0.597772
0.274464 0.276249 0.274479
0.281361 0.283101 0.281224
0.288289 0.289967 0.287968
0.295247 0.296864 0.294743
0.30251 0.304036 0.301793
0.30959 0.311009 0.308629
0.316747 0.318013 0.315511
0.32398 0.325109 0.322454
0.331334 0.332296 0.329503
0.338827 0.33959 0.336645
0.346761 0.347311 0.344213
0.35462 0.35494 0.351675
0.362753 0.362783 0.359365
0.371145 0.370901 0.3673
0.379889 0.379309 0.37554
0.389075 0.388159 0.384207
0.398917 0.39762 0.393484
0.409033 0.407324 0.402991
0.41973 0.417578 0.413062
0.431083 0.428473 0.423743
0.443198 0.44007 0.435142
0.45626 0.452598 0.447456
0.470298 0.466056 0.4607
0.485039 0.480201 0.474617
0.500816 0.495338 0.489525
0.517693 0.511543 0.505501
0.535744 0.528878 0.522606
0.555383 0.547768 0.541238
0.576226 0.567819 0.561044
0.598184 0.588937 0.581903
0.6215 0.611383 0.604089
0.646204 0.635172 0.627619
0.672267 0.660258 0.65243
0.298177 0.300542 0.298192
0.305135 0.307454 0.304982
0.312154 0.314397 0.311772
0.319448 0.321614 0.318837
0.326604 0.328649 0.325734
0.333806 0.335729 0.332662
0.341115 0.342885 0.339651
0.348547 0.350149 0.346746
0.35613 0.357534 0.353948
0.364172 0.365362 0.361608
0.372168 0.373114 0.369177
0.380438 0.381109 0.376974
0.389029 0.389395 0.385077
0.397986 0.398032 0.3935
0.407416 0.407111 0.40238
0.417594 0.416892 0.411948
0.428061 0.426947 0.421775
0.43917 0.437613 0.432212
0.451011 0.448966 0.443351
0.463661 0.461112 0.455253
0.477623 0.47451 0.468391
0.492149 0.488441 0.482094
0.507698 0.50338 0.496773
0.524376 0.519387 0.51252
0.542214 0.536538 0.529412
0.561486 0.555077 0.547677
0.582223 0.575036 0.567361
0.603998 0.596002 0.588052
0.627176 0.618326 0.610086
0.651698 0.641962 0.633433
0.677516 0.66685 0.658015
0.705135 0.693462 0.684337
0.733944 0.721233 0.711803
0.322637 0.325689 0.322667
0.329717 0.332708 0.329519
0.337118 0.340047 0.336675
0.34432 0.347143 0.343603
0.351598 0.354299 0.350576
0.358999 0.361547 0.357641
0.366522 0.368902 0.364797
0.374456 0.376638 0.372335
0.382406 0.384375 0.379858
0.390539 0.392264 0.387549
0.398978 0.400427 0.395499
0.407767 0.408911 0.403754
0.416953 0.417777 0.41239
0.426947 0.427405 0.421759
0.437156 0.437232 0.431342
0.44799 0.447639 0.44152
0.459541 0.458717 0.452338
0.47187 0.470558 0.46392
0.4851 0.483268 0.476356
0.499657 0.497246 0.490059
0.514931 0.51191 0.504448
0.531304 0.527642 0.51989
0.548852 0.544518 0.536477
0.567636 0.5626 0.554269
0.587884 0.582101 0.573465
0.609766 0.603174 0.594232
0.632624 0.625223 0.615961
0.656809 0.648539 0.638972
0.682536 0.67335 0.663447
0.709575 0.699443 0.689219
0.738277 0.727123 0.716564
0.768124 0.755917 0.745007
0.798596 0.785306 0.77406
0.348424 0.352316 0.348455
0.355795 0.359625 0.355566
0.363088 0.366827 0.36257
0.370489 0.374105 0.36965
0.377997 0.381476 0.376791
0.385657 0.388952 0.38407
0.393713 0.396826 0.391699
0.401831 0.40473 0.399374
0.410147 0.412802 0.407202
0.418769 0.421149 0.415305
0.427771 0.429847 0.423743
0.437201 0.438956 0.432593
0.447501 0.448875 0.442237
0.458045 0.459037 0.452125
0.469261 0.46981 0.462623
0.481224 0.481315 0.473838
0.494057 0.493629 0.485863
0.50782 0.506859 0.498787
0.523033 0.521492 0.513115
0.538964 0.536812 0.528115
0.55613 0.553323 0.544305
0.574533 0.571038 0.5617
0.594263 0.590036 0.580377
0.615885 0.610895 0.600885
0.638315 0.632502 0.622171
0.662242 0.655604 0.644907
0.687587 0.680049 0.669017
0.714336 0.705882 0.694484
0.742596 0.733166 0.721401
0.772381 0.761929 0.749798
0.802701 0.79118 0.778683
0.833875 0.821241 0.808377
0.865614 0.85182 0.83859
0.375921 0.380804 0.375967
0.383383 0.38819 0.383124
0.390936 0.395636 0.390341
0.398611 0.403174 0.397635
0.406439 0.410834 0.405035
0.414755 0.418967 0.412909
0.42298 0.426993 0.420676
0.431495 0.435248 0.428656
0.440345 0.443824 0.436957
0.449577 0.452766 0.445609
0.459525 0.462379 0.454932
0.469871 0.472358 0.464607
0.480766 0.482841 0.474784
0.492363 0.493996 0.485634
0.504768 0.505928 0.49723
0.518059 0.518715 0.509697
0.532738 0.532845 0.523491
0.548165 0.547692 0.537987
0.564752 0.563653 0.553613
0.58262 0.580835 0.570443
0.60177 0.599298 0.58854
0.62237 0.61915 0.608026
0.644938 0.640925 0.629435
0.668406 0.663569 0.651698
0.693294 0.687587 0.675349
0.71957 0.712963 0.700343
0.747173 0.739635 0.726619
0.776211 0.767681 0.754284
0.806882 0.797314 0.783505
0.837827 0.827192 0.812985
0.869459 0.85771 0.843091
0.901457 0.888533 0.873518
0.933425 0.91928 0.903868
0.405753 0.41178 0.405814
0.413535 0.419471 0.41323
0.421424 0.427222 0.420722
0.429603 0.435264 0.428473
0.438025 0.443503 0.436423
0.446494 0.451759 0.444373
0.455238 0.460273 0.452583
0.464332 0.469108 0.461097
0.473838 0.478309 0.469978
0.484077 0.488212 0.479545
0.494774 0.498543 0.48954
0.505989 0.509346 0.500023
0.517968 0.520882 0.511193
0.530755 0.533196 0.523171
0.544518 0.546426 0.536034
0.559701 0.561059 0.550286
0.575692 0.576471 0.565316
0.592798 0.592935 0.581415
0.611307 0.610758 0.598856
0.631205 0.629938 0.617639
0.652598 0.650568 0.637873
0.675975 0.673152 0.660044
0.700236 0.696574 0.683055
0.725917 0.72137 0.707454
0.752987 0.747524 0.733196
0.781353 0.774945 0.760189
0.811612 0.804181 0.788998
0.842191 0.833738 0.818112
0.87361 0.864057 0.84802
0.905486 0.894804 0.878325
0.937499 0.925643 0.908736
0.969314 0.956222 0.938872
1 0.986465 0.968673
0.438911 0.446281 0.438987
0.447105 0.454368 0.446769
0.455573 0.462684 0.45478
0.464317 0.471275 0.463035
0.47306 0.47982 0.471244
0.482109 0.488609 0.479698
0.491493 0.497749 0.488487
0.501305 0.507256 0.497642
0.512016 0.517632 0.507637
0.522896 0.528145 0.517784
0.534447 0.5393 0.528572
0.546777 0.551171 0.540063
0.559991 0.563897 0.552392
0.574426 0.577813 0.565911
0.589792 0.592615 0.580316
0.606226 0.608438 0.595728
0.623911 0.625483 0.61236
0.642954 0.643839 0.630289
0.663386 0.663539 0.649577
0.685771 0.685161 0.670741
0.709361 0.707927 0.69308
0.734264 0.731991 0.716701
0.760586 0.757397 0.741665
0.78822 0.7841 0.767941
0.81709 0.812009 0.795377
0.847761 0.841657 0.824567
0.87863 0.871489 0.853941
0.91017 0.901915 0.883909
0.942031 0.932631 0.914183
0.973754 0.96318 0.944259
1 0.993149 0.97377
1 1 1
1 1 1
0.476493 0.485374 0.476585
0.485588 0.494362 0.485191
0.494453 0.503075 0.493553
0.503563 0.511986 0.502098
0.512947 0.521126 0.510872
0.522652 0.530587 0.519951
0.532937 0.540566 0.529534
0.543877 0.551186 0.539742
0.555108 0.562051 0.55021
0.56701 0.573541 0.561288
0.579614 0.585687 0.573022
0.593149 0.598749 0.585657
0.60795 0.613016 0.599481
0.623819 0.628305 0.614343
0.64062 0.644495 0.630076
0.658671 0.661906 0.647044
0.67808 0.680629 0.665309
0.698924 0.700725 0.684947
0.721675 0.722698 0.706447
0.745647 0.74583 0.729122
0.770977 0.770291 0.753109
0.79765 0.796063 0.778408
0.82562 0.823072 0.804944
0.854734 0.851194 0.832593
0.885542 0.88098 0.861875
0.916381 0.910765 0.891173
0.947692 0.940963 0.920882
0.979156 0.971267 0.950713
1 1 0.980209
1 1 1
1 1 1
1 1 1
1 1 1
0.519921 0.530556 0.520027
0.529274 0.539773 0.528847
0.538796 0.549111 0.537789
0.548592 0.558679 0.546944
0.558709 0.568536 0.556374
0.569345 0.578882 0.566293
0.580713 0.589929 0.576898
0.592203 0.601053 0.587594
0.60444 0.612879 0.598978
0.617441 0.625422 0.611063
0.631281 0.638773 0.623957
0.646616 0.65359 0.638285
0.662501 0.668894 0.653117
0.67953 0.685313 0.669062
0.697841 0.702953 0.686213
0.717464 0.721874 0.704662
0.738781 0.742443 0.724727
0.761563 0.764431 0.746212
0.785473 0.787503 0.768795
0.810834 0.811994 0.792767
0.837613 0.837842 0.818128
0.865583 0.864836 0.844617
0.895003 0.893263 0.872526
0.92517 0.922393 0.901137
0.955657 0.951782 0.930022
0.986404 0.981414 0.959152
1 1 0.988128
1 1 1
1 1 1
1 1 1
1 1 1
1 1 1
1 1 1
0.56939 0.581964 0.569512
0.579461 0.591867 0.578988
0.589715 0.601923 0.588586
0.600275 0.612222 0.598428
0.611643 0.623316 0.609049
0.623026 0.634363 0.619623
0.634943 0.645914 0.630701
0.647471 0.658045 0.642344
0.660716 0.670832 0.654658
0.674891 0.68452 0.667826
0.690333 0.699443 0.682246
0.706355 0.71487 0.697169
0.723491 0.73138 0.713176
0.741833 0.749065 0.730343
0.761456 0.767956 0.74873
0.782681 0.788418 0.768658
0.805402 0.810361 0.790051
0.829145 0.833249 0.812421
0.854231 0.857435 0.836088
0.880598 0.882856 0.86099
0.908217 0.909499 0.887083
0.937194 0.937453 0.914504
0.966705 0.965911 0.942412
0.996368 0.994476 0.970443
1 1 0.998535
1 1 1
1 1 1
1 1 1
1 1 1
1 1 1
1 1 1
1 1 1
1 1 1
0.625925 0.64065 0.626062
0.636774 0.651316 0.63624
0.647807 0.662089 0.64654
0.659739 0.673777 0.657694
0.671473 0.685176 0.668589
0.68368 0.697017 0.679927
0.696452 0.709377 0.691768
0.709895 0.722362 0.704234
0.724163 0.736141 0.717479
0.739757 0.751217 0.732006
0.755749 0.766613 0.746868
0.772793 0.783017 0.762737
0.790982 0.800519 0.779706
0.810361 0.819196 0.797818
0.831662 0.839734 0.817792
0.85359 0.860838 0.838346
0.876799 0.883192 0.860151
0.901274 0.906752 0.883162
0.926909 0.931441 0.907286
0.953857 0.957382 0.932677
0.981903 0.98439 0.959106
1 1 0.985626
1 1 1
1 1 1
1 1 1
1 1 1
1 1 1
1 1 1
1 1 1
1 1 1
1 1 1
1 1 1
1 1 1
0.689998 0.707088 0.690166
0.702098 0.71899 0.701518
0.713954 0.730571 0.712551
0.726024 0.742321 0.723766
0.738476 0.754406 0.735317
0.751446 0.766949 0.747311
0.764981 0.780041 0.759838
0.779828 0.7944 0.773617
0.794797 0.808835 0.787488
0.81062 0.824063 0.802152
0.827405 0.840192 0.817716
0.845182 0.857282 0.834241
0.864012 0.87538 0.851759
0.884764 0.895369 0.871153
0.905959 0.915724 0.890929
0.928283 0.937179 0.911818
0.95172 0.959701 0.933745
0.976181 0.9832 0.956664
1 1 0.980652
1 1 1
1 1 1
1 1 1
1 1 1
1 1 1
1 1 1
1 1 1
1 1 1
1 1 1
1 1 1
1 1 1
1 1 1
1 1 1
1 1 1
0.761379 0.781079 0.761578
0.773754 0.793194 0.773114
0.786099 0.805219 0.784573
0.798749 0.817502 0.796292
0.81178 0.830121 0.808316
0.825299 0.843183 0.820798
0.840101 0.857496 0.834501
0.854856 0.871687 0.848096
0.870329 0.886564 0.862379
0.886595 0.90219 0.877409
0.903777 0.918654 0.893278
0.921889 0.936034 0.910063
0.94168 0.955032 0.928435
0.961761 0.974273 0.947082
0.982834 0.994461 0.966674
1 1 0.987167
1 1 1
1 1 1
1 1 1
1 1 1
1 1 1
1 1 1
1 1 1
1 1 1
1 1 1
1 1 1
1 1 1
1 1 1
1 1 1
1 1 1
1 1 1
1 1 1
1 1 1
0.837644 0.860136 0.837873
0.850263 0.87245 0.849592
0.86302 0.88484 0.861372
0.876081 0.897475 0.873396
0.889982 0.910918 0.886213
0.904005 0.924437 0.899107
0.918364 0.938231 0.912276
0.933318 0.952575 0.926009
0.948928 0.967529 0.940337
0.96524 0.983139 0.955322
0.982986 1 0.971679
1 1 0.988174
1 1 1
1 1 1
1 1 1
1 1 1
1 1 1
1 1 1
1 1 1
1 1 1
1 1 1
1 1 1
1 1 1
1 1 1
1 1 1
1 1 1
1 1 1
1 1 1
1 1 1
1 1 1
1 1 1
1 1 1
1 1 1
0.915969 0.941436 0.916228
0.928771 0.953872 0.928038
0.941649 0.966323 0.939849
0.955291 0.979507 0.952392
0.968978 0.992691 0.964904
0.982788 1 0.977493
0.997024 1 0.990478
1 1 1
1 1 1
1 1 1
1 1 1
1 1 1
1 1 1
1 1 1
1 1 1
1 1 1
1 1 1
1 1 1
1 1 1
1 1 1
1 1 1
1 1 1
1 1 1
1 1 1
1 1 1
1 1 1
1 1 1
1 1 1
1 1 1
1 1 1
1 1 1
1 1 1
1 1 1
0.991958 1 0.992248
1 1 1
1 1 1
1 1 1
1 1 1
1 1 1
1 1 1
1 1 1
1 1 1
